brandFactory_export/1.Light/Bajada de Precio_1Light.svg

<?xml version="1.0" encoding="UTF-8"?>
<svg width="24px" height="24px" viewBox="0 0 24 24" version="1.1" xmlns="http://www.w3.org/2000/svg" xmlns:xlink="http://www.w3.org/1999/xlink">
    <title>1.Light/Bajada de Precio_1Light</title>
    <g id="Symbols" stroke="none" stroke-width="1" fill="none" fill-rule="evenodd">
        <g id="1.Light/Bajada-de-Precio_1Light" fill="#5CB615" fill-rule="nonzero">
            <path d="M13.7781513,-9.9475983e-14 C14.6252101,-9.9475983e-14 15.1092437,0.484033613 15.1092437,1.32773109 L15.1092437,14.4302521 L18.3697479,14.4302521 C18.6991597,14.4302521 18.8134454,14.6252101 18.8504202,14.7092437 C18.887395,14.7932773 18.9411765,15.0117647 18.7092437,15.2436975 L10.6554622,23.287395 C10.5310924,23.4151261 10.3596639,23.4857143 10.1815126,23.4857143 C10.0033613,23.4857143 9.83193277,23.4151261 9.70420168,23.287395 L1.65714286,15.2436975 C1.42521008,15.0117647 1.4789916,14.7932773 1.51596639,14.7092437 C1.55294118,14.6252101 1.66722689,14.4302521 1.99663866,14.4302521 L5.25714286,14.4302521 L5.25742274,13.1405458 C3.64043023,13.0851391 2.37328442,12.6241709 1.48907563,11.7714286 C0.504201681,10.8235294 0.00672268958,9.40504202 0.00672268958,7.55630252 C0.00672268958,5.70756303 0.504201681,4.29243697 1.48571429,3.34453782 C2.37344116,2.48829061 3.64147757,2.03004175 5.25669162,1.97531321 L5.25714286,1.32773109 C5.25714286,0.484033613 5.73445378,-9.9475983e-14 6.56806723,-9.9475983e-14 L13.7781513,-9.9475983e-14 Z M13.7781513,0.675630252 L6.56806723,0.675630252 C6.10420168,0.675630252 5.92941177,0.853781513 5.92941177,1.33109244 L5.9292605,1.97556064 C7.54194368,2.03159935 8.81064909,2.49250942 9.69411765,3.34453782 C10.6756303,4.29243697 11.1764706,5.71092437 11.1764706,7.55630252 C11.1764706,9.40168067 10.6789916,10.8235294 9.69411765,11.7680672 C8.8130555,12.6239562 7.54611068,13.0851254 5.92913101,13.1405449 L5.92941177,14.4302521 C5.92941177,14.8 5.62689076,15.102521 5.25714286,15.102521 L2.47394958,15.102521 L10.1815126,22.810084 L17.8890756,15.102521 L15.1058824,15.102521 C14.7361345,15.102521 14.4336134,14.8 14.4336134,14.4302521 L14.4336134,1.32773109 C14.4336134,0.863865546 14.2453782,0.675630252 13.7781513,0.675630252 Z M5.67917321,2.63921967 L5.66079963,2.64524028 C5.63897059,2.64973739 5.61638656,2.65210084 5.59327731,2.65210084 C5.56356543,2.65210084 5.53472175,2.64819392 5.50723464,2.64086845 L5.59327731,2.63865546 C3.99663866,2.63865546 2.7697479,3.03865546 1.95294118,3.82521008 C1.10588235,4.64201681 0.678991597,5.89579832 0.678991597,7.55294118 C0.678991597,9.21008403 1.1092437,10.4672269 1.95294118,11.2806723 C2.76405647,12.0617463 3.97624618,12.4616338 5.55988621,12.4671686 L5.59327731,12.4638655 L5.59327731,12.4638655 L5.62572269,12.466 L5.88885816,12.4625427 C7.34462973,12.4157169 8.46785714,12.0180672 9.23361345,11.2806723 C10.0806723,10.4638655 10.507563,9.21008403 10.507563,7.55294118 C10.507563,5.89579832 10.0773109,4.63865546 9.23361345,3.82521008 C8.42821535,3.05282011 7.23385295,2.65642897 5.67917321,2.63921967 Z M5.59327731,3.62352941 C5.77815126,3.62352941 5.92941177,3.77478992 5.92941177,3.95966387 L5.92980437,4.38598477 C6.37179126,4.43645439 6.78120668,4.56905472 7.1092437,4.77310924 C7.26386555,4.87058824 7.3512605,5.00504202 7.3512605,5.15630252 C7.3512605,5.37815126 7.17310924,5.55630252 6.9512605,5.55630252 C6.86386555,5.55294118 6.77983193,5.52941176 6.70588235,5.48571429 L6.70252101,5.48235294 C6.44006451,5.340189 6.1875698,5.24641088 5.92929519,5.19824063 L5.92872269,7.114 L5.96353879,7.11984712 C6.77946607,7.24883477 7.69411765,7.65570228 7.69411765,8.83697479 C7.69411765,9.84956995 7.03041978,10.5211346 5.9301383,10.6639518 L5.92941177,11.092437 C5.92941177,11.2773109 5.77815126,11.4285714 5.59327731,11.4285714 C5.40840336,11.4285714 5.25714286,11.2773109 5.25714286,11.092437 L5.25672269,10.682 C4.65222534,10.63795 4.07955182,10.4380952 3.58655462,10.097479 C3.45210084,10.0033613 3.38487395,9.88235294 3.38487395,9.72773109 C3.38823529,9.49915966 3.57310924,9.31764706 3.80168067,9.3210084 C3.89915966,9.32436975 3.99327731,9.35462185 4.07394958,9.40840336 C4.46705975,9.67047681 4.86460418,9.82834529 5.25757961,9.87840751 L5.25672269,7.862 L5.15857565,7.84700896 C3.8185001,7.61099268 3.52941177,6.81110705 3.52941177,6.16806723 C3.52941177,5.15499468 4.19881651,4.47231503 5.25608045,4.37501292 L5.25714286,3.95966387 C5.25714286,3.77478992 5.40840336,3.62352941 5.59327731,3.62352941 Z M5.93044656,7.96142211 L5.92999827,9.86120509 C6.51906907,9.75246205 6.87058824,9.3936187 6.87058824,8.87394958 C6.87058824,8.51803472 6.75150027,8.13776097 5.93044656,7.96142211 Z M4.35294118,6.1210084 C4.35294118,6.69339655 4.77148926,6.91320342 5.25678803,7.01620815 L5.25618407,5.17543705 C4.68742223,5.2508039 4.35294118,5.5925626 4.35294118,6.1210084 Z" id="Bajada-de-Precio_1Light"></path>
        </g>
    </g>
</svg>

<svg width="24" height="24" viewBox="0 0 24 24" xmlns="http://www.w3.org/2000/svg"><path d="M13.778 0c.847 0 1.331.484 1.331 1.328V14.43h3.26c.33 0 .444.195.481.28.037.083.091.302-.14.534l-8.055 8.043a.66.66 0 01-.473.199.674.674 0 01-.478-.199l-8.047-8.043c-.232-.232-.178-.45-.141-.535.037-.084.151-.279.48-.279h3.261v-1.29c-1.617-.055-2.884-.516-3.768-1.369C.504 10.824.007 9.405.007 7.556c0-1.848.497-3.264 1.479-4.211.887-.857 2.155-1.315 3.77-1.37l.001-.647C5.257.484 5.734 0 6.568 0h7.21zm0 .676h-7.21c-.464 0-.639.178-.639.655v.645c1.613.056 2.882.517 3.765 1.369.982.947 1.482 2.366 1.482 4.211 0 1.846-.497 3.268-1.482 4.212-.88.856-2.148 1.317-3.765 1.373v1.29c0 .369-.302.672-.672.672H2.474l7.708 7.707 7.707-7.707h-2.783a.674.674 0 01-.672-.673V1.328c0-.464-.189-.652-.656-.652zM5.68 2.639l-.018.006a.334.334 0 01-.154-.004l.086-.002c-1.596 0-2.823.4-3.64 1.186-.847.817-1.274 2.07-1.274 3.728 0 1.657.43 2.914 1.274 3.728.811.78 2.023 1.18 3.607 1.186l.033-.003.033.002.263-.003c1.456-.047 2.579-.445 3.345-1.182.847-.817 1.274-2.07 1.274-3.728 0-1.657-.43-2.914-1.274-3.728-.806-.772-2-1.169-3.555-1.186zm-.086.985c.185 0 .336.15.336.336v.426c.443.05.852.183 1.18.387.155.098.242.232.242.383 0 .222-.178.4-.4.4a.52.52 0 01-.245-.07l-.003-.004a2.62 2.62 0 00-.774-.284v1.916l.035.006c.815.129 1.73.536 1.73 1.717 0 1.013-.664 1.684-1.764 1.827v.428a.337.337 0 01-.337.337.337.337 0 01-.336-.337v-.41a3.354 3.354 0 01-1.67-.585.43.43 0 01-.202-.37.41.41 0 01.417-.406.523.523 0 01.272.087c.393.262.79.42 1.184.47l-.001-2.016-.098-.015c-1.34-.236-1.63-1.036-1.63-1.679 0-1.013.67-1.696 1.727-1.793l.001-.415c0-.185.151-.336.336-.336zM5.93 7.96v1.9c.59-.109.94-.467.94-.987 0-.356-.118-.736-.94-.913zm-1.577-1.84c0 .572.418.792.904.895v-1.84c-.57.075-.904.417-.904.945z" fill="#5CB615" fill-rule="nonzero"/></svg>
